src/icons/svg/schedule-log.svg

<?xml version="1.0" standalone="no"?><!DOCTYPE svg PUBLIC "-//W3C//DTD SVG 1.1//EN" "http://www.w3.org/Graphics/SVG/1.1/DTD/svg11.dtd"><svg t="1603092275827" class="icon" viewBox="0 0 1024 1024" version="1.1" xmlns="http://www.w3.org/2000/svg" p-id="3986" xmlns:xlink="http://www.w3.org/1999/xlink" width="240" height="240"><defs><style type="text/css"></style></defs><path d="M843.538286 118.857143c34.121143 0 61.604571 27.904 61.604571 62.134857V842.971429a62.354286 62.354286 0 0 1-17.883428 43.812571 61.275429 61.275429 0 0 1-43.702858 18.340571H253.586286c-34.121143 0-61.604571-27.904-61.604572-62.134857V685.714286H274.285714a45.714286 45.714286 0 1 0 0-91.428572h-82.285714v-36.571428H274.285714a45.714286 45.714286 0 1 0 0-91.428572h-82.285714v-36.571428H274.285714a45.714286 45.714286 0 1 0 0-91.428572h-82.285714V180.955429c0.036571-34.194286 27.483429-62.061714 61.604571-62.098286H843.52zM566.857143 301.714286c-116.132571 0-210.285714 94.153143-210.285714 210.285714S450.724571 722.285714 566.857143 722.285714 777.142857 628.132571 777.142857 512 682.989714 301.714286 566.857143 301.714286z m-292.571429 310.857143a27.428571 27.428571 0 0 1 2.633143 54.729142L274.285714 667.428571H146.285714a27.428571 27.428571 0 0 1-2.633143-54.729142L146.285714 612.571429h128z m292.571429-256a155.428571 155.428571 0 1 1 0 310.857142 155.428571 155.428571 0 0 1 0-310.857142z m-18.285714 73.142857a27.428571 27.428571 0 0 0-27.428572 27.428571v73.142857l0.054857 1.444572 0.073143 1.188571A27.428571 27.428571 0 0 0 548.571429 557.714286h91.428571a27.428571 27.428571 0 0 0 0-54.857143h-64.018286L576 457.142857a27.428571 27.428571 0 0 0-27.428571-27.428571z m-274.285715 54.857143a27.428571 27.428571 0 0 1 2.633143 54.729142L274.285714 539.428571H146.285714a27.428571 27.428571 0 0 1-2.633143-54.729142L146.285714 484.571429h128z m0-128a27.428571 27.428571 0 0 1 2.633143 54.729142L274.285714 411.428571H146.285714a27.428571 27.428571 0 0 1-2.633143-54.729142L146.285714 356.571429h128z" p-id="3987"></path></svg>

<svg class="icon" viewBox="0 0 1024 1024" xmlns="http://www.w3.org/2000/svg" width="240" height="240"><defs><style/></defs><path d="M843.538 118.857c34.121 0 61.605 27.904 61.605 62.135v661.98a62.354 62.354 0 01-17.884 43.812 61.275 61.275 0 01-43.702 18.34h-589.97c-34.122 0-61.605-27.903-61.605-62.134V685.714h82.304a45.714 45.714 0 100-91.428H192v-36.572h82.286a45.714 45.714 0 100-91.428H192v-36.572h82.286a45.714 45.714 0 100-91.428H192v-157.33c.037-34.195 27.483-62.062 61.605-62.099H843.52zm-276.68 182.857c-116.133 0-210.287 94.153-210.287 210.286s94.154 210.286 210.286 210.286S777.143 628.133 777.143 512 682.99 301.714 566.857 301.714zM274.285 612.571a27.429 27.429 0 012.633 54.73l-2.633.128h-128a27.429 27.429 0 01-2.633-54.73l2.633-.128h128zm292.571-256a155.429 155.429 0 110 310.858 155.429 155.429 0 010-310.858zm-18.286 73.143a27.429 27.429 0 00-27.428 27.429v73.143l.055 1.444.073 1.189a27.429 27.429 0 0027.3 24.795H640a27.429 27.429 0 000-54.857h-64.018l.018-45.714a27.429 27.429 0 00-27.429-27.429zm-274.285 54.857a27.429 27.429 0 012.633 54.73l-2.633.128h-128a27.429 27.429 0 01-2.633-54.73l2.633-.128h128zm0-128a27.429 27.429 0 012.633 54.73l-2.633.128h-128a27.429 27.429 0 01-2.633-54.73l2.633-.128h128z"/></svg>
